assets/images/icons/messenger.svg

<svg viewBox="0 0 24 24" xmlns="http://www.w3.org/2000/svg"><path d="m12 2c-5.514 0-10 4.262-10 9.5 0 2.545 1.088 4.987484 3 6.771484v4.345704l4.0800781-2.039063c.9589999.279 1.9399219.421875 2.9199219.421875 5.514 0 10-4.262 10-9.5s-4.486-9.5-10-9.5zm0 2c4.411 0 8 3.365 8 7.5s-3.589 7.5-8 7.5c-.789 0-1.584328-.115797-2.3613281-.341797l-.7519531-.21875-.7011719.349609-1.1855469.59375v-1.111328-.86914l-.6367188-.591797c-1.5019999-1.402-2.3632812-3.338547-2.3632812-5.310547 0-4.135 3.589-7.5 8-7.5zm-1 5-5 5 4.5-2 2.5 2 5-5-4.5 2z" fill="#fff"/></svg>

<svg viewBox="0 0 24 24" xmlns="http://www.w3.org/2000/svg">
<g fill="#ffffff">
    <path d="M 12 2 C 6.486 2 2 6.262 2 11.5 C 2 14.045 3.088 16.487484 5 18.271484 L 5 22.617188 L 9.0800781 20.578125 C 10.039078 20.857125 11.02 21 12 21 C 17.514 21 22 16.738 22 11.5 C 22 6.262 17.514 2 12 2 z M 12 4 C 16.411 4 20 7.365 20 11.5 C 20 15.635 16.411 19 12 19 C 11.211 19 10.415672 18.884203 9.6386719 18.658203 L 8.8867188 18.439453 L 8.1855469 18.789062 L 7 19.382812 L 7 18.271484 L 7 17.402344 L 6.3632812 16.810547 C 4.8612813 15.408547 4 13.472 4 11.5 C 4 7.365 7.589 4 12 4 z M 11 9 L 6 14 L 10.5 12 L 13 14 L 18 9 L 13.5 11 L 11 9 z"/>
</g></svg>
